X:631
T: DU DU LIEGST MIR IM HERZEN
N: E0578
O: Europa, Mitteleuropa, Deutschland, Norddeutschland
R: Liebes - Lied
M: 3/8
L: 1/8
K: F
 | A3 | A3 | AGA | c2B |
G3 | G3 | GFG | A2z |
A3 | A3 | AGA | c2B |
GAB | dcE | F3 | z3 |
d3c3 | e3f2z
GABdcE | F3z3

@@@ Tune index: 4281
